X:310
T: Siobhn O'Donnell's #1
S: Traditional Irish Music (K.Tweed)
Z: B.Black
L: 1/8
M: 6/8
R: jig
K: D
c|def A2 G|EFD =c2 A|dcd e/f/af|gec Aec|
def A2 G|EFD =c2 A|dcd e/f/af|gec d2 :|
e|f3 dfa|gec Ace|fef gfg|edB ABd|
B3 gBg|A3 fAf|G3 f/g/af| gec d2 :|
